communes/5493.svg

<?xml version="1.0" encoding="UTF-8"?>
<svg version="1.0" viewBox="0 0 603 763" xmlns="http://www.w3.org/2000/svg" xmlns:cc="http://creativecommons.org/ns#" xmlns:dc="http://purl.org/dc/elements/1.1/" xmlns:rdf="http://www.w3.org/1999/02/22-rdf-syntax-ns#" xmlns:xlink="http://www.w3.org/1999/xlink">
<metadata>
<rdf:RDF>
<cc:Work rdf:about="">
<dc:format>image/svg+xml</dc:format>
<dc:type rdf:resource="http://purl.org/dc/dcmitype/StillImage"/>
<dc:date>07-AUG-2006</dc:date>
<dc:creator>
<cc:Agent>
<dc:title>Jérôme BLUM (wagner51)</dc:title>
</cc:Agent>
</dc:creator>
<cc:license rdf:resource="http://creativecommons.org/licenses/GPL/2.0/"/>
<dc:coverage/>
<dc:description>Gabarit pour le Projet:Blasons de WIkipédia</dc:description>
<dc:subject>
<rdf:Bag>
<rdf:li>blason suisse modèle gabarit projet blasons</rdf:li>
</rdf:Bag>
</dc:subject>
<dc:language>fr</dc:language>
<dc:title>Gabrit d'un blason suisse</dc:title>
</cc:Work>
<cc:License rdf:about="http://creativecommons.org/licenses/GPL/2.0/">
<cc:permits rdf:resource="http://web.resource.org/cc/Reproduction"/>
<cc:permits rdf:resource="http://web.resource.org/cc/Distribution"/>
<cc:requires rdf:resource="http://web.resource.org/cc/Notice"/>
<cc:permits rdf:resource="http://web.resource.org/cc/DerivativeWorks"/>
<cc:requires rdf:resource="http://web.resource.org/cc/ShareAlike"/>
<cc:requires rdf:resource="http://web.resource.org/cc/SourceCode"/>
</cc:License>
</rdf:RDF>
</metadata>
<defs>
<radialGradient id="a" cx="858.04" cy="579.93" r="300" gradientTransform="matrix(1.215 1.5316e-24 1.4647e-23 1.2667 -839.19 -490.49)" gradientUnits="userSpaceOnUse">
<stop stop-color="#fff" stop-opacity=".31373" offset="0"/>
<stop stop-color="#fff" stop-opacity=".25098" offset=".19"/>
<stop stop-color="#6b6b6b" stop-opacity=".12549" offset=".6"/>
<stop stop-opacity=".12549" offset="1"/>
</radialGradient>
</defs>
<desc>Coat of Arms of Canton of Freiburg (Fribourg)</desc>
<g>
<path d="m1.5 1.5v458.87c0 166.31 134.31 301.13 300 301.13s300-134.82 300-301.13v-458.87h-600z" fill="#e20909"/>
<path d="m1.5 251.19v209.18c0 166.31 134.31 301.13 300 301.13 165.69 0 300-134.82 300-301.13v-209.18h-600z" fill="#2b5df2"/>
<path d="m201.5 744.34c31.28 11.099 64.933 17.158 100 17.158h1e-3v-510.31h-100v493.15h-1e-3zm200-493.15v493.15c37.264-13.223 71.146-33.617 100-59.544v-433.61h-100zm-400 209.18c0 89.18 38.632 169.29 100 224.43v-433.61h-100v209.18z" fill="#fff"/>
<path d="m201.5 251.19v493.15m99.999 17.158 1e-3 -510.31m200 433.61v-433.61m-100 0v493.15m-300-59.544v-433.61" fill="none" stroke="#000" stroke-width="3"/>
<line x1="1.5" x2="601.5" y1="251.19" y2="251.19" fill="none" stroke="#000" stroke-width="3"/>
<g stroke="#000" stroke-width="3">
<rect x="240.6" y="379.84" width="121.79" height="315.56" fill="#fcef3c" stroke-miterlimit="20"/>
<polygon transform="translate(-.038 -.045)" points="337.86 78.938 308.24 78.938 308.24 49.32 294.83 49.32 294.83 78.938 265.21 78.938 265.21 92.351 294.83 92.351 294.83 158.42 308.24 158.42 308.24 92.351 337.86 92.351" fill="#fcef3c" stroke-miterlimit="20"/>
<path d="m308.21 153.3h-13.414s-33.833 170.3-73.46 232.91h160.34c-39.628-62.604-73.461-232.91-73.461-232.91z" fill="#fcef3c" stroke-miterlimit="20"/>
<path d="m301.5 410.79h-2e-3c-5.825 1e-3 -15.307 8.488-15.307 17.33v53.055h30.616v-53.055c0-8.843-9.482-17.329-15.307-17.33z" fill="#fcef3c" stroke-miterlimit="20"/>
<path d="m327.17 695.4v-51.994c0-12.11-11.495-21.93-25.673-21.93s-25.673 9.819-25.673 21.93v51.994" fill="none" stroke-miterlimit="20"/>
<ellipse transform="translate(-.038 -.045)" cx="286.74" cy="669.09" rx=".782" ry=".817"/>
<path d="m280.6 665.87c4.318 0 6.097-0.485 6.097 3.183" fill="none" stroke-linecap="round"/>
<path d="m306.51 649.19c0-0.665-0.342-1.203-0.763-1.203v0c-0.421 0-0.762 0.538-0.762 1.203v3.291c0 0.664 0.341 1.202 0.762 1.202v0c0.421 0 0.763-0.538 0.763-1.202v-3.291z" fill="none" stroke-linecap="round"/>
<line x1="328.19" x2="305.75" y1="650.83" y2="650.83" fill="none" stroke-linecap="round"/>
<path d="m328.19 652.48v-3.291" fill="none" stroke-linecap="round"/>
<path d="m306.51 673.86c0-0.664-0.342-1.202-0.763-1.202v0c-0.421 0-0.762 0.538-0.762 1.202v3.291c0 0.665 0.341 1.202 0.762 1.202v0c0.421 0 0.763-0.537 0.763-1.202v-3.291z" fill="none" stroke-linecap="round"/>
<line x1="328.19" x2="305.75" y1="675.5" y2="675.5" fill="none" stroke-linecap="round"/>
<path d="m328.19 677.15v-3.291" fill="none" stroke-linecap="round"/>
<line x1="240.6" x2="275.83" y1="680.72" y2="680.72" fill="none"/>
<line x1="327.17" x2="362.4" y1="680.72" y2="680.72" fill="none"/>
<line x1="239.87" x2="363.13" y1="348.82" y2="348.82" fill="none" stroke-linejoin="bevel"/>
<line x1="251.37" x2="351.63" y1="318.12" y2="318.12" fill="none" stroke-linejoin="bevel"/>
<line x1="260.26" x2="342.74" y1="290.71" y2="290.71" fill="none" stroke-linejoin="bevel"/>
<line x1="267.61" x2="335.39" y1="265.68" y2="265.68" fill="none" stroke-linejoin="bevel"/>
<line x1="278.65" x2="324.35" y1="224.1" y2="224.1" fill="none" stroke-linejoin="bevel"/>
<line x1="282.9" x2="320.1" y1="206.73" y2="206.73" fill="none" stroke-linejoin="bevel"/>
<line x1="286.88" x2="316.11" y1="189.73" y2="189.73" fill="none" stroke-linejoin="bevel"/>
<polyline transform="translate(-.038 -.045)" points="329.5 265.73 329.5 244.01 273.57 244.01 273.57 265.73" fill="none" stroke-linejoin="bevel"/>
<line x1="301.5" x2="301.5" y1="189.73" y2="206.73" fill="none" stroke-linejoin="bevel"/>
<line x1="301.5" x2="301.5" y1="224.1" y2="243.96" fill="none" stroke-linejoin="bevel"/>
<line x1="301.5" x2="301.5" y1="265.68" y2="290.71" fill="none" stroke-linejoin="bevel"/>
<line x1="301.5" x2="301.5" y1="318.12" y2="348.82" fill="none" stroke-linejoin="bevel"/>
<line x1="273.53" x2="273.53" y1="290.71" y2="318.12" fill="none" stroke-linejoin="bevel"/>
<line x1="329.46" x2="329.46" y1="290.71" y2="318.12" fill="none" stroke-linejoin="bevel"/>
<line x1="273.53" x2="273.53" y1="348.82" y2="386.21" fill="none" stroke-linejoin="bevel"/>
<line x1="329.46" x2="329.46" y1="348.82" y2="386.21" fill="none" stroke-linejoin="bevel"/>
</g>
<polygon transform="translate(-.038 -.045)" points="112.58 49.32 131.12 106.4 191.15 106.4 142.59 141.68 161.14 198.77 112.58 163.49 64.02 198.77 82.565 141.68 34.009 106.4 94.03 106.4" fill="#fcef3c" stroke="#000" stroke-miterlimit="20" stroke-width="3"/>
<polygon transform="translate(-.038 -.045)" points="509.04 106.4 569.06 106.4 520.51 141.68 539.06 198.77 490.5 163.49 441.94 198.77 460.48 141.68 411.93 106.4 471.95 106.4 490.5 49.32" fill="#fcef3c" stroke="#000" stroke-miterlimit="20" stroke-width="3"/>
</g>
<g>
<path d="m1.5 1.5v458.87c0 166.31 134.31 301.13 300 301.13 165.69 0 300-134.82 300-301.13v-458.87h-600z" fill="url(#a)"/>
<path d="m1.5 1.5v458.87c0 166.31 134.31 301.13 300 301.13 165.69 0 300-134.82 300-301.13v-458.87h-600z" fill="none" stroke="#000" stroke-width="3"/>
</g>
</svg>

<?xml version="1.0" encoding="UTF-8" standalone="no"?>
<svg
   xmlns:dc="http://purl.org/dc/elements/1.1/"
   xmlns:cc="http://creativecommons.org/ns#"
   xmlns:rdf="http://www.w3.org/1999/02/22-rdf-syntax-ns#"
   xmlns:svg="http://www.w3.org/2000/svg"
   xmlns="http://www.w3.org/2000/svg"
   xmlns:xlink="http://www.w3.org/1999/xlink"
   xmlns:sodipodi="http://sodipodi.sourceforge.net/DTD/sodipodi-0.dtd"
   xmlns:inkscape="http://www.inkscape.org/namespaces/inkscape"
   height="763"
   width="603"
   version="1.0"
   id="svg20"
   sodipodi:version="0.32"
   inkscape:version="0.46"
   sodipodi:docname="Orny-coat_of_arms.svg"
   sodipodi:docbase="C:\Documents and Settings\Steve\Bureau\Blason Villages Suisse pour Wikipédia (par Delta-9)"
   inkscape:output_extension="org.inkscape.output.svg.inkscape">
  <metadata
     id="metadata31">
    <rdf:RDF>
      <cc:Work
         rdf:about="">
        <dc:format>image/svg+xml</dc:format>
        <dc:type
           rdf:resource="http://purl.org/dc/dcmitype/StillImage" />
        <dc:date>07-AUG-2006</dc:date>
        <dc:creator>
          <cc:Agent>
            <dc:title>Jérôme BLUM (wagner51)</dc:title>
          </cc:Agent>
        </dc:creator>
        <cc:license
           rdf:resource="http://creativecommons.org/licenses/GPL/2.0/" />
        <dc:coverage />
        <dc:description>Gabarit pour le Projet:Blasons de WIkipédia</dc:description>
        <dc:subject>
          <rdf:Bag>
            <rdf:li>blason suisse modèle gabarit projet blasons</rdf:li>
          </rdf:Bag>
        </dc:subject>
        <dc:language>fr</dc:language>
        <dc:title>Gabrit d'un blason suisse</dc:title>
      </cc:Work>
      <cc:License
         rdf:about="http://creativecommons.org/licenses/GPL/2.0/">
        <cc:permits
           rdf:resource="http://web.resource.org/cc/Reproduction" />
        <cc:permits
           rdf:resource="http://web.resource.org/cc/Distribution" />
        <cc:requires
           rdf:resource="http://web.resource.org/cc/Notice" />
        <cc:permits
           rdf:resource="http://web.resource.org/cc/DerivativeWorks" />
        <cc:requires
           rdf:resource="http://web.resource.org/cc/ShareAlike" />
        <cc:requires
           rdf:resource="http://web.resource.org/cc/SourceCode" />
      </cc:License>
    </rdf:RDF>
  </metadata>
  <defs
     id="defs29"><inkscape:perspective
   sodipodi:type="inkscape:persp3d"
   inkscape:vp_x="0 : 381.5 : 1"
   inkscape:vp_y="0 : 1000 : 0"
   inkscape:vp_z="603 : 381.5 : 1"
   inkscape:persp3d-origin="301.5 : 254.33333 : 1"
   id="perspective28" />
<linearGradient
   id="linearGradient2893">
  <stop
     style="stop-color:#ffffff;stop-opacity:0.3137255;"
     offset="0"
     id="stop2895" />
  <stop
     id="stop2897"
     offset="0.19"
     style="stop-color:#ffffff;stop-opacity:0.25098041;" />
  <stop
     style="stop-color:#6b6b6b;stop-opacity:0.1254902;"
     offset="0.60000002"
     id="stop2901" />
  <stop
     style="stop-color:#000000;stop-opacity:0.1254902;"
     offset="1"
     id="stop2899" />
</linearGradient>
<linearGradient
   id="linearGradient2955">
  <stop
     style="stop-color:white;stop-opacity:0;"
     offset="0"
     id="stop2965" />
  <stop
     style="stop-color:black;stop-opacity:0.64583331;"
     offset="1"
     id="stop2959" />
</linearGradient>
<radialGradient
   inkscape:collect="always"
   xlink:href="#linearGradient2893"
   id="radialGradient3236"
   gradientUnits="userSpaceOnUse"
   gradientTransform="matrix(1.215027,1.531577e-24,1.464684e-23,1.266667,-839.1924,-490.4894)"
   cx="858.04236"
   cy="579.93323"
   fx="858.04236"
   fy="579.93323"
   r="300" />
<inkscape:perspective
   id="perspective2646"
   inkscape:persp3d-origin="297.63751 : 280.63 : 1"
   inkscape:vp_z="595.27502 : 420.94501 : 1"
   inkscape:vp_y="0 : 1000 : 0"
   inkscape:vp_x="0 : 420.94501 : 1"
   sodipodi:type="inkscape:persp3d" />

	
	
	
	

	
	

		
		
	
		
		
		
	
		
		
	
			
			
		
			
			
			
			
		
			
				
			
			
			
		
			
		
			
		
				
				
					
				
			
				
				
					
				
			
				
				
			
				
					
				
					
				
					
				
					
				
					
				
					
				
					
				
				
					
				
					
				
					
				
					
				
					
				
					
				
					
				
					
			
				
				
			</defs>
  <sodipodi:namedview
     inkscape:window-height="968"
     inkscape:window-width="1280"
     inkscape:pageshadow="2"
     inkscape:pageopacity="0.0"
     guidetolerance="10.0"
     gridtolerance="10.0"
     objecttolerance="10.0"
     borderopacity="1.0"
     bordercolor="#666666"
     pagecolor="#ffffff"
     id="base"
     inkscape:zoom="0.95380146"
     inkscape:cx="186.55155"
     inkscape:cy="379.04932"
     inkscape:window-x="1280"
     inkscape:window-y="22"
     inkscape:current-layer="layer2"
     showgrid="false"
     showguides="true"
     inkscape:guide-bbox="true">
    <sodipodi:guide
       orientation="horizontal"
       position="761.5"
       id="guide1885" />
    <sodipodi:guide
       orientation="vertical"
       position="1.5"
       id="guide1887" />
    <sodipodi:guide
       orientation="horizontal"
       position="1.5"
       id="guide1889" />
    <sodipodi:guide
       orientation="vertical"
       position="601.5"
       id="guide1891" />
    <sodipodi:guide
       orientation="vertical"
       position="301.50081"
       id="guide1893" />
  </sodipodi:namedview>
  <desc
     id="desc22">Coat of Arms of Canton of Freiburg (Fribourg)</desc>
  <g
     inkscape:groupmode="layer"
     id="layer1"
     inkscape:label="Fond écu"
     style="opacity:1;display:inline"
     sodipodi:insensitive="true">
    <path
       d="M 1.5,1.5 L 1.5,460.369 C 1.5,626.68 135.814,761.5 301.5,761.5 C 467.186,761.5 601.5,626.68 601.5,460.369 L 601.5,1.5 L 1.5,1.5 z"
       id="path2653"
       style="opacity:1;fill:#e20909" />
    <path
       d="M 1.5,251.188 L 1.5,460.369 C 1.5,626.68 135.814,761.5 301.5,761.5 C 467.188,761.5 601.5,626.68 601.5,460.369 L 601.5,251.188 L 1.5,251.188 z"
       id="path2472"
       style="opacity:1;fill:#2b5df2" />
  </g>
  <g
     inkscape:groupmode="layer"
     id="layer2"
     inkscape:label="Meubles"
     style="opacity:1;display:inline"
     sodipodi:insensitive="true">
    <path
       style="fill:#ffffff"
       d="M 201.5,744.341 C 232.78,755.44 266.433,761.499 301.5,761.499 L 301.501,761.499 L 301.501,251.188 L 201.501,251.188 L 201.501,744.341 L 201.5,744.341 z M 401.5,251.188 L 401.5,744.341 C 438.764,731.118 472.646,710.724 501.5,684.797 L 501.5,251.188 L 401.5,251.188 z M 1.5,460.369 C 1.5,549.549 40.132,629.659 101.5,684.798 L 101.5,251.188 L 1.5,251.188 L 1.5,460.369 L 1.5,460.369 z"
       id="path2551" />
    <path
       style="fill:none;stroke:#000000;stroke-width:3"
       d="M 201.5,251.188 L 201.5,744.341 M 301.499,761.499 L 301.499,761.499 L 301.5,251.187 M 501.5,684.797 L 501.5,251.188 M 401.5,251.188 L 401.5,744.341 M 101.5,684.797 L 101.5,251.188"
       id="path2553" />
    <line
       y2="251.18799"
       x2="601.49902"
       y1="251.18799"
       x1="1.500003"
       id="line2592"
       style="fill:none;stroke:#000000;stroke-width:3" />
    <g
       id="g2961">
      <g
         id="g2928">
        <rect
           id="rect2560"
           height="315.561"
           width="121.793"
           stroke-miterlimit="20"
           y="379.83902"
           x="240.60301"
           style="fill:#fcef3c;stroke:#000000;stroke-width:3;stroke-miterlimit:20" />
        <polygon
           id="polygon2562"
           points="337.863,78.938 308.244,78.938 308.244,49.32 294.83,49.32 294.83,78.938 265.212,78.938 265.212,92.351 294.83,92.351 294.83,158.421 308.244,158.421 308.244,92.351 337.863,92.351 337.863,78.938 "
           stroke-miterlimit="20"
           style="fill:#fcef3c;stroke:#000000;stroke-width:3;stroke-miterlimit:20"
           transform="translate(-3.8e-2,-4.5e-2)" />
        <path
           id="path2564"
           d="M 308.206,153.295 L 294.792,153.295 C 294.792,153.295 260.959,323.6 221.332,386.205 L 381.667,386.205 C 342.039,323.601 308.206,153.295 308.206,153.295 z"
           stroke-miterlimit="20"
           style="fill:#fcef3c;stroke:#000000;stroke-width:3;stroke-miterlimit:20" />
        <path
           id="path2566"
           d="M 301.5,410.788 L 301.5,410.788 L 301.5,410.788 L 301.498,410.788 L 301.498,410.788 C 295.673,410.789 286.191,419.276 286.191,428.118 C 286.191,436.962 286.191,481.173 286.191,481.173 L 316.807,481.173 C 316.807,481.173 316.807,436.962 316.807,428.118 C 316.807,419.275 307.325,410.789 301.5,410.788 z"
           stroke-miterlimit="20"
           style="fill:#fcef3c;stroke:#000000;stroke-width:3;stroke-miterlimit:20" />
        <path
           id="path2570"
           d="M 327.173,695.4 L 327.173,643.406 C 327.173,631.296 315.678,621.476 301.5,621.476 C 287.322,621.476 275.827,631.295 275.827,643.406 L 275.827,695.4"
           stroke-miterlimit="20"
           style="fill:none;stroke:#000000;stroke-width:3;stroke-miterlimit:20" />
        <ellipse
           style="stroke:#000000;stroke-width:3"
           sodipodi:ry="0.81699997"
           sodipodi:rx="0.78200001"
           sodipodi:cy="669.09302"
           sodipodi:cx="286.737"
           cx="286.737"
           cy="669.09302"
           rx="0.78200001"
           ry="0.81699997"
           id="ellipse2574"
           transform="translate(-3.8e-2,-4.5e-2)" />
        <path
           style="fill:none;stroke:#000000;stroke-width:3;stroke-linecap:round"
           d="M 280.603,665.866 C 284.921,665.866 286.7,665.381 286.7,669.049"
           id="path2576" />
        <path
           style="fill:none;stroke:#000000;stroke-width:3;stroke-linecap:round"
           d="M 306.514,649.189 C 306.514,648.524 306.172,647.986 305.751,647.986 L 305.751,647.986 C 305.33,647.986 304.989,648.524 304.989,649.189 L 304.989,652.48 C 304.989,653.144 305.33,653.682 305.751,653.682 L 305.751,653.682 C 306.172,653.682 306.514,653.144 306.514,652.48 L 306.514,649.189 z"
           id="path2580" />
        <line
           style="fill:none;stroke:#000000;stroke-width:3;stroke-linecap:round"
           x1="328.189"
           y1="650.83405"
           x2="305.75101"
           y2="650.83405"
           id="line2582" />
        <path
           style="fill:none;stroke:#000000;stroke-width:3;stroke-linecap:round"
           d="M 328.189,652.48 L 328.189,649.189"
           id="path2584" />
        <path
           style="fill:none;stroke:#000000;stroke-width:3;stroke-linecap:round"
           d="M 306.514,673.859 C 306.514,673.195 306.172,672.657 305.751,672.657 L 305.751,672.657 C 305.33,672.657 304.989,673.195 304.989,673.859 L 304.989,677.15 C 304.989,677.815 305.33,678.352 305.751,678.352 L 305.751,678.352 C 306.172,678.352 306.514,677.815 306.514,677.15 L 306.514,673.859 z"
           id="path2588" />
        <line
           style="fill:none;stroke:#000000;stroke-width:3;stroke-linecap:round"
           x1="328.189"
           y1="675.505"
           x2="305.75101"
           y2="675.505"
           id="line2590" />
        <path
           style="fill:none;stroke:#000000;stroke-width:3;stroke-linecap:round"
           d="M 328.189,677.15 L 328.189,673.859"
           id="path2592" />
        <line
           style="fill:none;stroke:#000000;stroke-width:3"
           x1="240.60301"
           y1="680.72003"
           x2="275.827"
           y2="680.72003"
           id="line2598" />
        <line
           style="fill:none;stroke:#000000;stroke-width:3"
           x1="327.173"
           y1="680.72003"
           x2="362.397"
           y2="680.72003"
           id="line2600" />
        <line
           style="fill:none;stroke:#000000;stroke-width:3;stroke-linejoin:bevel"
           x1="239.873"
           y1="348.82401"
           x2="363.12799"
           y2="348.82401"
           id="line2604" />
        <line
           style="fill:none;stroke:#000000;stroke-width:3;stroke-linejoin:bevel"
           x1="251.368"
           y1="318.11801"
           x2="351.63"
           y2="318.11801"
           id="line2606" />
        <line
           style="fill:none;stroke:#000000;stroke-width:3;stroke-linejoin:bevel"
           x1="260.25601"
           y1="290.70703"
           x2="342.742"
           y2="290.70703"
           id="line2608" />
        <line
           style="fill:none;stroke:#000000;stroke-width:3;stroke-linejoin:bevel"
           x1="267.608"
           y1="265.68103"
           x2="335.39001"
           y2="265.68103"
           id="line2610" />
        <line
           style="fill:none;stroke:#000000;stroke-width:3;stroke-linejoin:bevel"
           x1="278.646"
           y1="224.10098"
           x2="324.353"
           y2="224.10098"
           id="line2612" />
        <line
           style="fill:none;stroke:#000000;stroke-width:3;stroke-linejoin:bevel"
           x1="282.901"
           y1="206.72899"
           x2="320.09799"
           y2="206.72899"
           id="line2614" />
        <line
           style="fill:none;stroke:#000000;stroke-width:3;stroke-linejoin:bevel"
           x1="286.884"
           y1="189.72598"
           x2="316.11401"
           y2="189.72598"
           id="line2616" />
        <polyline
           style="fill:none;stroke:#000000;stroke-width:3;stroke-linejoin:bevel"
           points="329.502,265.726 329.502,244.009       273.572,244.009 273.572,265.726     "
           id="polyline2618"
           transform="translate(-3.8e-2,-4.5e-2)" />
        <line
           style="fill:none;stroke:#000000;stroke-width:3;stroke-linejoin:bevel"
           x1="301.49899"
           y1="189.72598"
           x2="301.49899"
           y2="206.72899"
           id="line2620" />
        <line
           style="fill:none;stroke:#000000;stroke-width:3;stroke-linejoin:bevel"
           x1="301.49899"
           y1="224.10098"
           x2="301.49899"
           y2="243.96399"
           id="line2622" />
        <line
           style="fill:none;stroke:#000000;stroke-width:3;stroke-linejoin:bevel"
           x1="301.5"
           y1="265.68103"
           x2="301.5"
           y2="290.70703"
           id="line2624" />
        <line
           style="fill:none;stroke:#000000;stroke-width:3;stroke-linejoin:bevel"
           x1="301.49899"
           y1="318.11801"
           x2="301.49899"
           y2="348.82401"
           id="line2626" />
        <line
           style="fill:none;stroke:#000000;stroke-width:3;stroke-linejoin:bevel"
           x1="273.534"
           y1="290.70703"
           x2="273.534"
           y2="318.11801"
           id="line2628" />
        <line
           style="fill:none;stroke:#000000;stroke-width:3;stroke-linejoin:bevel"
           x1="329.46402"
           y1="290.70703"
           x2="329.46402"
           y2="318.11801"
           id="line2630" />
        <line
           style="fill:none;stroke:#000000;stroke-width:3;stroke-linejoin:bevel"
           x1="273.534"
           y1="348.82401"
           x2="273.534"
           y2="386.20502"
           id="line2632" />
        <line
           style="fill:none;stroke:#000000;stroke-width:3;stroke-linejoin:bevel"
           x1="329.46402"
           y1="348.82401"
           x2="329.46402"
           y2="386.20502"
           id="line2634" />
      </g>
      <g
         id="g2925">
        <polygon
           points="112.578,49.32 131.124,106.404 191.146,106.404 142.586,141.684 161.138,198.769 112.578,163.489 64.02,198.769 82.565,141.684 34.009,106.404 94.03,106.404 112.578,49.32 "
           stroke-miterlimit="20"
           id="polygon2528_4_"
           style="fill:#fcef3c;stroke:#000000;stroke-width:3;stroke-miterlimit:20"
           transform="translate(-3.8e-2,-4.5e-2)" />
      </g>
      <g
         id="g2922">
        <polygon
           points="509.044,106.404 569.063,106.404 520.507,141.684 539.055,198.769 490.496,163.489 441.937,198.769 460.484,141.684 411.927,106.404 471.948,106.404 490.496,49.32 509.044,106.404 "
           stroke-miterlimit="20"
           id="polygon2528_6_"
           style="fill:#fcef3c;stroke:#000000;stroke-width:3;stroke-miterlimit:20"
           transform="translate(-3.8e-2,-4.5e-2)" />
      </g>
    </g>
  </g>
  <g
     inkscape:groupmode="layer"
     id="layer3"
     inkscape:label="Reflet final"
     style="display:inline"
     sodipodi:insensitive="true">
    <path
       style="fill:url(#radialGradient3236);fill-opacity:1"
       d="M 1.5,1.5 L 1.5,460.3679 C 1.5,626.67854 135.81454,761.5 301.49993,761.5 C 467.1854,761.5 601.5,626.67854 601.5,460.3679 L 601.5,1.5 L 1.5,1.5 z "
       id="path2346" />
  </g>
  <g
     inkscape:groupmode="layer"
     id="layer4"
     inkscape:label="Contour final"
     style="display:inline"
     sodipodi:insensitive="true">
    <path
       style="fill:none;fill-opacity:1;stroke:#000000;stroke-width:3;stroke-miterlimit:4;stroke-dasharray:none;stroke-opacity:1"
       d="M 1.5,1.5 L 1.5,460.36794 C 1.5,626.67854 135.81454,761.5 301.49993,761.5 C 467.1854,761.5 601.5,626.67854 601.5,460.36794 L 601.5,1.5 L 1.5,1.5 z "
       id="path3239" />
  </g>
</svg>
